!!! OTL: Berkowitz153
!!! Chapter: 1
!!! Section: I
!!! Page: 34
!!! Mode: 
!!! Encoder: DJB
**kern
*staff1
*I"Piano
=1-
*clefG2
*k[b-e-a-d-]
*f:
*M4/4
4f/
8g/L
8g/J
4a-/
4f/
=2
4g/
4a-/
4b-\
4r
=3
4dd-\
8b-\L
8b-\J
4g/
4b-\
=4
4cc\
8b-/L
8a-/J
4g/
4r
=5
4f/
8cc\L
8cc\J
4a-/
4cc\
=6
4dd-\
8b-\L
8b-\J
4g/
4b-\
=7
4.cc\
8b-\
4a-/
4g/
=8
!!linebreak:original
4c/
8dn/L
8en/J
4f/
4r
==
*-
